X: 3
T: The Rainy Day
R: reel
M: 4/4
L: 1/8
K: Ador
D|:EAAG A3G|B/c/d ed gedc|BGGF G2dG|G2dG eGdG|EAAG ~A3G|BAAA B/c/d ef|~g3e dBGA|B2dB A3:|d|eaag ~a3g|ba~a2 baag|eggf g3a|bg~g2 bgag|ea~a2 aged|B/c/d ef g2ag|eaag egdG|B2dB A3:|


Tune 1807	Setting 15247

